images/Shape-in.svg

<svg width="24" height="25" fill="none" xmlns="http://www.w3.org/2000/svg"><path fill-rule="evenodd" clip-rule="evenodd" d="M2.4.5h19.2C22.92.5 24 1.58 24 2.9v19.2c0 1.32-1.08 2.4-2.4 2.4H2.4c-1.32 0-2.4-1.08-2.4-2.4V2.9C0 1.58 1.08.5 2.4.5Zm1.2 20.4h3.6V10.1H3.6v10.8ZM5.4 8.06c-1.2 0-2.16-.96-2.16-2.16 0-1.2.96-2.16 2.16-2.16 1.2 0 2.16.96 2.16 2.16 0 1.2-.96 2.16-2.16 2.16ZM16.8 20.9h3.6v-6.84c0-2.28-1.92-4.2-4.2-4.2-1.08 0-2.4.72-3 1.68V10.1H9.6v10.8h3.6v-6.36c0-.96.84-1.8 1.8-1.8.96 0 1.8.84 1.8 1.8v6.36Z" fill="#fff"/></svg>

<svg width="24" height="25" viewBox="0 0 24 25" fill="none" xmlns="http://www.w3.org/2000/svg">
<path fill-rule="evenodd" clip-rule="evenodd" d="M2.4 0.5H21.6C22.92 0.5 24 1.58 24 2.9V22.1C24 23.42 22.92 24.5 21.6 24.5H2.4C1.08 24.5 0 23.42 0 22.1V2.9C0 1.58 1.08 0.5 2.4 0.5ZM3.6 20.9H7.2V10.1H3.6V20.9ZM5.4 8.06C4.2 8.06 3.24 7.1 3.24 5.9C3.24 4.7 4.2 3.74 5.4 3.74C6.6 3.74 7.56 4.7 7.56 5.9C7.56 7.1 6.6 8.06 5.4 8.06ZM16.8 20.9H20.4V14.06C20.4 11.78 18.48 9.86 16.2 9.86C15.12 9.86 13.8 10.58 13.2 11.54V10.1H9.6V20.9H13.2V14.54C13.2 13.58 14.04 12.74 15 12.74C15.96 12.74 16.8 13.58 16.8 14.54V20.9Z" fill="white"/>
</svg>
